public/images/case-studies/speakinc/feature-icon4.svg

<svg width="72" height="72" viewBox="0 0 72 72" fill="none" xmlns="http://www.w3.org/2000/svg">
<path d="M66.9375 14.625H39.9375C39.0424 14.625 38.184 14.9806 37.551 15.6135C36.9181 16.2464 36.5625 17.1049 36.5625 18V67.5C36.5625 68.3951 36.9181 69.2535 37.551 69.8865C38.184 70.5194 39.0424 70.875 39.9375 70.875H66.9375C67.8326 70.875 68.691 70.5194 69.324 69.8865C69.9569 69.2535 70.3125 68.3951 70.3125 67.5V18C70.3125 17.1049 69.9569 16.2464 69.324 15.6135C68.691 14.9806 67.8326 14.625 66.9375 14.625ZM53.4375 19.125C54.105 19.125 54.7575 19.3229 55.3125 19.6938C55.8676 20.0646 56.3001 20.5917 56.5556 21.2084C56.811 21.8251 56.8779 22.5037 56.7477 23.1584C56.6174 23.8131 56.296 24.4145 55.824 24.8865C55.352 25.3585 54.7506 25.6799 54.0959 25.8102C53.4412 25.9404 52.7626 25.8735 52.1459 25.6181C51.5292 25.3626 51.0021 24.9301 50.6313 24.375C50.2604 23.82 50.0625 23.1675 50.0625 22.5C50.0625 21.6049 50.4181 20.7464 51.051 20.1135C51.684 19.4806 52.5424 19.125 53.4375 19.125ZM52.3125 65.25C52.3125 65.5484 52.194 65.8345 51.983 66.0455C51.772 66.2565 51.4859 66.375 51.1875 66.375H42.1875C41.8891 66.375 41.603 66.2565 41.392 66.0455C41.181 65.8345 41.0625 65.5484 41.0625 65.25V56.25C41.0625 55.9516 41.181 55.6655 41.392 55.4545C41.603 55.2435 41.8891 55.125 42.1875 55.125H51.1875C51.4859 55.125 51.772 55.2435 51.983 55.4545C52.194 55.6655 52.3125 55.9516 52.3125 56.25V65.25ZM65.8125 65.25C65.8125 65.5484 65.694 65.8345 65.483 66.0455C65.272 66.2565 64.9859 66.375 64.6875 66.375H55.6875C55.3891 66.375 55.103 66.2565 54.892 66.0455C54.681 65.8345 54.5625 65.5484 54.5625 65.25V56.25C54.5625 55.9516 54.681 55.6655 54.892 55.4545C55.103 55.2435 55.3891 55.125 55.6875 55.125H64.6875C64.9859 55.125 65.272 55.2435 65.483 55.4545C65.694 55.6655 65.8125 55.9516 65.8125 56.25V65.25ZM65.8125 51.75C65.8125 52.0484 65.694 52.3345 65.483 52.5455C65.272 52.7565 64.9859 52.875 64.6875 52.875H42.1875C41.8891 52.875 41.603 52.7565 41.392 52.5455C41.181 52.3345 41.0625 52.0484 41.0625 51.75V29.25C41.0625 28.9516 41.181 28.6655 41.392 28.4545C41.603 28.2435 41.8891 28.125 42.1875 28.125H64.6875C64.9859 28.125 65.272 28.2435 65.483 28.4545C65.694 28.6655 65.8125 28.9516 65.8125 29.25V51.75Z" fill="#EAEAEA"/>
<path d="M54.5625 1.125H5.0625C4.16739 1.125 3.30895 1.48058 2.67601 2.11351C2.04308 2.74645 1.6875 3.60489 1.6875 4.5V36C1.6875 36.8951 2.04308 37.7535 2.67601 38.3865C3.30895 39.0194 4.16739 39.375 5.0625 39.375H13.5968L18.1744 43.9526C17.9596 44.0316 17.774 44.1741 17.6424 44.3612C17.5107 44.5484 17.4392 44.7712 17.4375 45V49.5C17.4375 49.7984 17.556 50.0845 17.767 50.2955C17.978 50.5065 18.2641 50.625 18.5625 50.625H41.0625C41.3609 50.625 41.647 50.5065 41.858 50.2955C42.069 50.0845 42.1875 49.7984 42.1875 49.5V45C42.1858 44.7712 42.1143 44.5484 41.9826 44.3612C41.851 44.1741 41.6654 44.0316 41.4506 43.9526L46.0283 39.375H54.5625C55.4576 39.375 56.316 39.0194 56.949 38.3865C57.5819 37.7535 57.9375 36.8951 57.9375 36V4.5C57.9375 3.60489 57.5819 2.74645 56.949 2.11351C56.316 1.48058 55.4576 1.125 54.5625 1.125ZM39.9375 48.375H19.6875V46.125H39.9375V48.375ZM38.3467 43.875H21.2782L16.7782 39.375H42.8467L38.3467 43.875ZM55.6875 36C55.6875 36.2984 55.569 36.5845 55.358 36.7955C55.147 37.0065 54.8609 37.125 54.5625 37.125H5.0625C4.76413 37.125 4.47798 37.0065 4.267 36.7955C4.05603 36.5845 3.9375 36.2984 3.9375 36V4.5C3.9375 4.20163 4.05603 3.91548 4.267 3.7045C4.47798 3.49353 4.76413 3.375 5.0625 3.375H54.5625C54.8609 3.375 55.147 3.49353 55.358 3.7045C55.569 3.91548 55.6875 4.20163 55.6875 4.5V36Z" fill="#FF6B00"/>
<path d="M52.3125 5.625H7.3125C7.01413 5.625 6.72798 5.74353 6.51701 5.95451C6.30603 6.16548 6.1875 6.45163 6.1875 6.75V15.75C6.1875 16.0484 6.30603 16.3345 6.51701 16.5455C6.72798 16.7565 7.01413 16.875 7.3125 16.875H52.3125C52.6109 16.875 52.897 16.7565 53.108 16.5455C53.319 16.3345 53.4375 16.0484 53.4375 15.75V6.75C53.4375 6.45163 53.319 6.16548 53.108 5.95451C52.897 5.74353 52.6109 5.625 52.3125 5.625ZM51.1875 14.625H8.4375V7.875H51.1875V14.625Z" fill="#FF6B00"/>
<path d="M7.3125 33.25H15.1875C15.4859 33.25 15.772 33.1315 15.983 32.9205C16.194 32.7095 16.3125 32.4234 16.3125 32.125V23.125C16.3125 22.8266 16.194 22.5405 15.983 22.3295C15.772 22.1185 15.4859 22 15.1875 22H7.3125C7.01413 22 6.72798 22.1185 6.51701 22.3295C6.30603 22.5405 6.1875 22.8266 6.1875 23.125V32.125C6.1875 32.4234 6.30603 32.7095 6.51701 32.9205C6.72798 33.1315 7.01413 33.25 7.3125 33.25ZM8.4375 24.25H14.0625V31H8.4375V24.25Z" fill="#FF6B00"/>
<path d="M27.5625 33.25C27.8609 33.25 28.147 33.1315 28.358 32.9205C28.569 32.7095 28.6875 32.4234 28.6875 32.125V23.125C28.6875 22.8266 28.569 22.5405 28.358 22.3295C28.147 22.1185 27.8609 22 27.5625 22H19.6875C19.3891 22 19.103 22.1185 18.892 22.3295C18.681 22.5405 18.5625 22.8266 18.5625 23.125V32.125C18.5625 32.4234 18.681 32.7095 18.892 32.9205C19.103 33.1315 19.3891 33.25 19.6875 33.25H27.5625ZM20.8125 24.25H26.4375V31H20.8125V24.25Z" fill="#FF6B00"/>
<path d="M39.9375 33.25C40.2359 33.25 40.522 33.1315 40.733 32.9205C40.944 32.7095 41.0625 32.4234 41.0625 32.125V23.125C41.0625 22.8266 40.944 22.5405 40.733 22.3295C40.522 22.1185 40.2359 22 39.9375 22H32.0625C31.7641 22 31.478 22.1185 31.267 22.3295C31.056 22.5405 30.9375 22.8266 30.9375 23.125V32.125C30.9375 32.4234 31.056 32.7095 31.267 32.9205C31.478 33.1315 31.7641 33.25 32.0625 33.25H39.9375ZM33.1875 24.25H38.8125V31H33.1875V24.25Z" fill="#FF6B00"/>
<path d="M52.3125 22H44.4375C44.1391 22 43.853 22.1185 43.642 22.3295C43.431 22.5405 43.3125 22.8266 43.3125 23.125V32.125C43.3125 32.4234 43.431 32.7095 43.642 32.9205C43.853 33.1315 44.1391 33.25 44.4375 33.25H52.3125C52.6109 33.25 52.897 33.1315 53.108 32.9205C53.319 32.7095 53.4375 32.4234 53.4375 32.125V23.125C53.4375 22.8266 53.319 22.5405 53.108 22.3295C52.897 22.1185 52.6109 22 52.3125 22ZM51.1875 31H45.5625V24.25H51.1875V31Z" fill="#FF6B00"/>
</svg>

<svg xmlns="http://www.w3.org/2000/svg" width="72" height="72" fill="none" xmlns:v="https://vecta.io/nano"><path d="M66.938 14.625h-27c-.895 0-1.754.356-2.386.989s-.989 1.491-.989 2.387v49.5c0 .895.356 1.754.989 2.386s1.491.989 2.386.989h27c.895 0 1.754-.356 2.386-.989s.989-1.491.989-2.386V18c0-.895-.356-1.754-.989-2.386s-1.491-.989-2.386-.989zm-13.5 4.5c.667 0 1.32.198 1.875.569s.988.898 1.243 1.515.322 1.295.192 1.95-.452 1.256-.924 1.728-1.073.793-1.728.924-1.333.063-1.95-.192-1.144-.688-1.515-1.243-.569-1.207-.569-1.875c0-.895.356-1.754.989-2.387s1.491-.988 2.386-.988zM52.313 65.25c0 .298-.118.585-.33.796s-.497.329-.795.329h-9c-.298 0-.584-.118-.795-.329s-.33-.497-.33-.796v-9c0-.298.118-.584.33-.795s.497-.33.795-.33h9c.298 0 .584.118.795.33s.33.497.33.795v9zm13.5 0c0 .298-.118.585-.329.796s-.497.329-.796.329h-9c-.298 0-.584-.118-.795-.329s-.33-.497-.33-.796v-9c0-.298.118-.584.33-.795s.497-.33.795-.33h9c.298 0 .585.118.796.33s.329.497.329.795v9zm0-13.5c0 .298-.118.584-.329.795s-.497.33-.796.33h-22.5c-.298 0-.584-.118-.795-.33s-.33-.497-.33-.795v-22.5c0-.298.118-.584.33-.796s.497-.329.795-.329h22.5c.298 0 .585.119.796.329s.329.497.329.796v22.5z" fill="#eaeaea"/><g fill="#ff6b00"><path d="M54.563 1.125h-49.5c-.895 0-1.754.356-2.386.989A3.38 3.38 0 0 0 1.688 4.5V36c0 .895.356 1.754.989 2.386a3.38 3.38 0 0 0 2.386.989h8.534l4.578 4.578c-.215.079-.4.222-.532.409s-.203.41-.205.639v4.5a1.13 1.13 0 0 0 .329.795c.21.211.497.33.796.33h22.5a1.12 1.12 0 0 0 .795-.33c.211-.212.33-.497.33-.795V45c-.002-.229-.073-.452-.205-.639s-.317-.33-.532-.409l4.578-4.578h8.534c.895 0 1.754-.356 2.386-.989a3.38 3.38 0 0 0 .989-2.386V4.5c0-.895-.356-1.754-.989-2.386a3.38 3.38 0 0 0-2.386-.989zm-14.625 47.25h-20.25v-2.25h20.25v2.25zm-1.591-4.5H21.278l-4.5-4.5h26.069l-4.5 4.5zM55.688 36a1.12 1.12 0 0 1-.33.795c-.212.211-.497.33-.795.33h-49.5a1.12 1.12 0 0 1-.795-.33 1.13 1.13 0 0 1-.33-.795V4.5c0-.298.119-.585.33-.796s.497-.329.795-.329h49.5a1.13 1.13 0 0 1 .795.329c.211.21.33.497.33.796V36zM52.313 5.625h-45c-.298 0-.585.119-.795.33a1.13 1.13 0 0 0-.33.795v9a1.13 1.13 0 0 0 .33.796 1.12 1.12 0 0 0 .795.329h45a1.13 1.13 0 0 0 .795-.329c.211-.21.33-.497.33-.796v-9a1.12 1.12 0 0 0-.33-.795 1.13 1.13 0 0 0-.795-.33zm-1.125 9H8.438v-6.75h42.75v6.75z"/><path d="M7.313 33.25h7.875c.298 0 .585-.118.796-.33s.329-.497.329-.795v-9a1.13 1.13 0 0 0-.329-.796 1.12 1.12 0 0 0-.796-.329H7.313c-.298 0-.585.119-.795.329a1.13 1.13 0 0 0-.33.796v9c0 .298.119.584.33.795s.497.33.795.33zm1.125-9h5.625V31H8.438v-6.75zm19.125 9c.298 0 .584-.118.796-.33a1.12 1.12 0 0 0 .329-.795v-9a1.13 1.13 0 0 0-.329-.796 1.12 1.12 0 0 0-.796-.329h-7.875a1.13 1.13 0 0 0-.796.329 1.12 1.12 0 0 0-.329.796v9a1.13 1.13 0 0 0 .329.795c.21.211.497.33.796.33h7.875zm-6.75-9h5.625V31h-5.625v-6.75zm19.125 9a1.12 1.12 0 0 0 .795-.33c.211-.212.33-.497.33-.795v-9c0-.298-.118-.584-.33-.796a1.12 1.12 0 0 0-.795-.329h-7.875a1.13 1.13 0 0 0-.796.329 1.12 1.12 0 0 0-.329.796v9a1.13 1.13 0 0 0 .329.795c.21.211.497.33.796.33h7.875zm-6.75-9h5.625V31h-5.625v-6.75zM52.313 22h-7.875a1.13 1.13 0 0 0-.795.329c-.211.21-.33.497-.33.796v9a1.12 1.12 0 0 0 .33.795c.212.211.497.33.795.33h7.875a1.12 1.12 0 0 0 .795-.33c.211-.212.33-.497.33-.795v-9c0-.298-.118-.584-.33-.796a1.12 1.12 0 0 0-.795-.329zm-1.125 9h-5.625v-6.75h5.625V31z"/></g></svg>
